X:77
%%vocalfont Baskerville10Pro 14
%%pagewidth 9.5in
%%score 1 2
T:The King and the miller of Mansfield
M:6/8
L:1/8
K:F
V:1 clef-treble
V:2 clef-bass octave=-1
V:1
[A,F][FA][FB] [Fc]c[Fd]|[Cc]G[EB] (A>G)F&x3Fx2|[A,F][FA][FB] c>B[FA]&x3F2x|
w:Hen-ry our royal* King, would ride a hunt-*ing, To the green fo-rest so
V:2
FEDA,2B,|E,2G,F,3|FEDA,2F|
V:1
[DG]F[G,E] [A,F]2F|[A,F][FA][FB] [FC]c[Fd]|[A,c]G[EB] A>GF&x3F2x|
w:plea-sant and fair, To see the harts skip-ping, and dain-ty does trip-ping Un
V:2
B,2C F,A,C|FED A,2B,|E,2G, F,3|
V:1
[A,F][FA][FB] c>B[FA]&x3F2x|[DG]F[G,E]F3&x3A,2x||"^Chorus"!f!A>GF AA[CGc]&[DF]x2x3|A>G[CF] [CEG]2C & [CF]x2x3|
w:to mer-ry Sherwood* his no-bles re-pair. Hawk* and hound were unbound, all things pre-pa-red
V:2
FED A,2F|B,2C F,FE|D3-D2E|F2A,C3|
V:1
!p!A>G[DF] c>BA & [CF]x2 [CF]x2|[DG]F[G,E] [A,F]3||!f! A>GF AA[CGc] & [DF]x2 x3|
w:For the game, in the same, with good re-gard. Hawk and hound were un-bound,
V:2
FED A,2F|B,2C F,FE||D3-D2E|
V:1
A>GF [CEG]2C & [CF]x2x3|!pp!A>G[DF] =c>B[CFA] & Ex2[CG]x2|[DG]F[G,E] [A,F]3||
w:all things pre-pa-red For the game, in the same, with good re-gard.
V:2
F2A, C3|^C2D E2F|B,2C F,3||

